!!!COM:	Ravel
!!!OTL:	296_Rav-31/1/[1]1-8
**kern	**dynam	**kern
*part2	*part2	*part1
*staff2	*S	*staff1
*I"Contrabass	*	*I"Oboe
*I'Cb.	*	*I'Ob.
*clefG2	*	*clefG2
*k[f#]	*	*k[f#]
*G:	*	*G:
*M8/8	*	*M8/8
=1	=1	=1
4r	.	8eeL 8bb
.	.	8ddJ 8aa
4f#	f	8eeL 8bb
.	.	8ggJ 8ddd
(8gL	.	8eeL 8bb
8f#J)	.	8ddJ 8aa
4d	.	8bL 8ee
.	.	8ddJ 8gg
=2	=2	=2
*M5/8	*	*M5/8
4B	.	8eeL 8bb
.	.	8dd 8aa
4d	.	8eeJ 8bb
.	.	8ddL 8aa
[8fn	.	8bJ 8ee
=3	=3	=3
*M7/8	*	*M7/8
8f]	.	8eeL 8bb
4a	.	8dd 8aa
.	.	8eeJ 8bb
[2b	.	8ggL 8ddd
.	.	8bbJ 8fff#
.	.	8ggL 8ddd
.	.	8eeJ 8bb
=4	=4	=4
*M4/8	*	*M4/8
8b]	.	8ddL 8aa
8r	.	8eeJ 8bb
4r	.	8aL 8dd
.	.	8bJ 8ee
=5	=5	=5
!!linebreak:original
*M7/8	*	*M7/8
2r	.	8ddL 8gg
.	.	8b 8ee
.	.	8ddJ 8gg
.	.	8eeL 8aa
4r	.	8ddJ 8gg
.	.	8bL 8ee
[8fn	.	8aJ 8dd
=6	=6	=6
*M3/8	*	*M3/8
8fL]	.	8ddL 8gg
(8g	.	8b 8ee
8f#J)	.	8aJ 8dd
=7	=7	=7
*M7/8	*	*M7/8
4d	.	8ddL 8gg
.	.	8b 8ee
2B	.	8ddJ 8gg
.	.	8eeL 8aa
.	.	8aJ 8dd
.	.	8bL 8ee
[8d	.	8ddJ 8gg
=8	=8	=8
*M9/8	*	*M9/8
8d]	.	8ff#L 8bb
[2B	.	8ee 8aa
.	.	8aaJ 8ddd
.	.	8ff#L 8bb
.	.	8ee 8aa
2B_	.	8f#J 8b
.	.	8aL 8dd
.	.	8ee 8aa
.	.	8bJ 8ff#
==	==	==
*-	*-	*-
!!!system-decoration: s1,s2
!!!ONB: Converted from MusicXML on 2019/06/05
